X:1
T:Title
%%score { ( 1 3 ) | 2 }
L:1/8
Q:1/4=100
M:4/4
K:F
V:1 treble nm="Grand Piano"
V:3 treble 
V:2 bass 
V:1
 A4 ACDF | A2 A2 A3 c | d2 c2 F2 [EG]2 |[M:7/8] [FA]-[FA]-[FA]- [FA]3 z |[M:1/8] [FB] | %5
w: B.~D.~Ackley * * * *|||||
[M:4/4] [EA]2 [EG]2 [Ec]3 [GB] | [GB]2 [FA]2 [Fd]3 [Fc] | =B2 G2 e3 d | [Ec]6 z2 | A4 dcFG | %10
w: |||||
 A2 A2 z4 | [EA]2 [EG]2 [EG]3 [EA] | G2 F2 F3 C | A3 A dcFG |[M:7/8] A2 A2 A3 |[M:1/8] B | %16
w: ||||||
[M:9/8] c f2- fdc AF[FG] |[M:4/4] [FA]2 [EG]2 [CF]4 |] %18
w: ||
V:2
 [F,CF]4 [F,CF][F,A,][F,A,C][F,A,C] | [F,CF]2 [F,DF]2 [F,CF]3 [F,A,F] | %2
 [F,B,F]2 [F,A,F]2 [D,A,]2 [C,C]2 |[M:7/8] [F,C]-[F,C]-[F,C]- [F,C]3 z |[M:1/8] [F,D] | %5
[M:4/4] [C,C]2 [C,B,]2 [C,G,]3 [C,C] | [F,C]2 [F,C]2 [F,A,]3 [D,D] | %7
 [G,DF]2 [G,=B,F]2 [G,B,G]3 [G,F] | [C,G,]6 z2 | [F,CF]4 [F,B,F][F,A,F][F,A,][F,B,F] | %10
 .[F,CF]2 .[F,EF]2 [F,CF]3 [F,DF] | [C,C]2 [C,B,]2 [C,B,]3 [C,C] | %12
 [F,B,C]2 [F,A,C]2 [F,A,C]3 [F,A,] | [F,CF]3 [F,CF] [F,B,F][F,A,F][F,A,][K:treble][F,B,F] | %14
[M:7/8] [F,CF]2 [F,DF]2 [F,CF]3 |[M:1/8] [G,CE] | %16
[M:9/8] [A,CF]3- [A,CF][B,F][A,CF][K:bass] [F,CF][F,A,][D,=B,] |[M:4/4] [C,C]2 [C,B,]2 [F,A,]4 |] %18
V:3
 x8 | x8 | x8 |[M:7/8] x7 |[M:1/8] x |[M:4/4] x8 | x8 | x8 | x8 | x8 | z F z D A3 B | x8 | x8 | %13
 x8 |[M:7/8] x7 |[M:1/8] x |[M:9/8] x9 |[M:4/4] x8 |] %18

